X:1
T:Title
%%score { ( 1 3 ) | ( 2 4 ) }
L:1/8
M:6/4
K:Bb
V:1 treble nm="Grand Piano"
V:3 treble 
V:2 bass 
V:4 bass 
V:1
 z6 z4[Q:1/4=180] [DF]2 | [DF]2 [_D=E]2 [=DF]2 [DB]2 [_Ec]2 [Fd]2 | G2 ^F2 G2 [=Ec]6 | z6 A6 | %4
[M:5/4] [EG]4 [DF]2 [DF]4 |[M:1/4] [DF]2 |[M:6/4] [DF]2 [_D=E]2 [=DF]2 [DB]2 [_Ec]2 [Fd]2 | %7
 G2 ^F2 G2 [=Ec]4 [EB]2 | A4 F2 d4 c2 | [DB]12 | c4 =B2 c4 d2 | [B,DB]4 [EB]2 .[DF]6 | %12
 [EG]4 [EG]2 [FB]2 [FA]2 [FB]2 | [=Ec]4 [Ed]2 [Fc]6 | [Fd]2 [=E_d]2 [F=d]2 [Ge]4 [Fd]2 | %15
 [=Ed]2 [EG]2 [EG]2 [Ec]4 [EB]2 | A4 F2 d4 c2 |[M:5/4] [DB]2- [DB]2- [DB]6 |] %18
V:2
 z6 z4 [B,,B,]2 | [B,,B,]2 [B,,B,]2 [B,,B,]2 [B,,F,]2 [B,,F,]2 [B,,B,]2 | %2
 [E,B,E]2 [E,A,E]2 [E,B,E]2 [C,B,]6 | [F,CE]4 [F,CE]2 .[F,CE]6 | %4
[M:5/4] [B,,B,]4 [B,,B,]2 [B,,B,]4 |[M:1/4] [B,,B,]2 | %6
[M:6/4] [B,,B,]2 [B,,B,]2 [B,,B,]2 [B,,F,]2 [B,,F,]2 [B,,B,]2 | %7
 [E,B,E]2 [E,A,E]2 [E,B,E]2 [C,B,]4 [C,C]2 | [F,CE]4 [F,A,]2 [F,B,F]4 [F,A,E]2 | [B,,B,]12 | %10
 z6 .E6 | B,,4 [B,,G,]2 .[B,,B,]6 | [E,B,]4 [E,B,]2 [D,B,]2 [D,B,]2 [_D,B,]2 | %13
 [C,B,]4 [C,B,]2 [F,A,]6 | [B,,B,]2 [B,,B,]2 [B,,B,]2 [B,,B,]4 [B,,B,]2 | %15
 [C,B,]2 [C,B,]2 [C,B,]2 [C,B,]4 [C,C]2 | [F,CE]4 [F,A,]2 [F,B,F]4 [F,A,E]2 | %17
[M:5/4] [B,,B,]2- [B,,B,]2- [B,,B,]6 |] %18
V:3
 x12 | x12 | x12 | B4 A2 z4 A,2 |[M:5/4] x10 |[M:1/4] x2 |[M:6/4] x12 | x12 | x12 | x12 | x12 | %11
 x12 | x12 | x12 | x12 | x12 | x12 |[M:5/4] x10 |] %18
V:4
 x12 | x12 | x12 | x12 |[M:5/4] x10 |[M:1/4] x2 |[M:6/4] x12 | x12 | x12 | x12 | %10
 [F,A,E]4 [F,_A,D]2 [F,=A,]4- [F,A,F]2 | x12 | x12 | x12 | x12 | x12 | x12 |[M:5/4] x10 |] %18

